Newaita-dark/apps/22/words.svg

<svg height="22" viewBox="0 0 22 22" width="22" xmlns="http://www.w3.org/2000/svg" xmlns:xlink="http://www.w3.org/1999/xlink"><linearGradient id="a" gradientTransform="matrix(.0511582 0 0 .0429729 -1.808356 9.239165)" gradientUnits="userSpaceOnUse" x1="254" x2="254" y1="233.5" y2="254.666672"><stop offset="0" stop-opacity=".27451"/><stop offset="1" stop-opacity="0"/></linearGradient><linearGradient id="b"><stop offset="0" stop-opacity=".313726"/><stop offset=".222222" stop-opacity=".27451"/><stop offset="1" stop-opacity="0"/></linearGradient><radialGradient id="c" cx="450.908936" cy="189.579361" gradientTransform="matrix(.00000012 -.0537161 -.0966889 -.00000007 34.702833 43.721791)" gradientUnits="userSpaceOnUse" r="21.166656" xlink:href="#b"/><radialGradient id="d" cx="450.908936" cy="189.579361" gradientTransform="matrix(-.00000012 .0537161 .0966889 .00000007 -12.872623 -5.175142)" gradientUnits="userSpaceOnUse" r="21.166656" xlink:href="#b"/><radialGradient id="e" cx="450.908936" cy="189.579361" gradientTransform="matrix(-.00000012 -.0537161 .0966889 -.00000007 -12.872623 43.721791)" gradientUnits="userSpaceOnUse" r="21.166656" xlink:href="#b"/><radialGradient id="f" cx="450.908936" cy="189.579361" gradientTransform="matrix(.00000012 .0537161 -.0966889 .00000007 34.702832 -5.175142)" gradientUnits="userSpaceOnUse" r="21.166656" xlink:href="#b"/><linearGradient id="g" gradientUnits="userSpaceOnUse" x1="10.9151166" x2="10.9151166" y1="19.27333515" y2="1.99106697081"><stop offset="0" stop-color="#e0e0e0"/><stop offset="1" stop-color="#eee"/></linearGradient><linearGradient id="h"><stop offset="0" stop-color="#81c784"/><stop offset="1" stop-color="#66bb6a"/></linearGradient><linearGradient id="i" gradientUnits="userSpaceOnUse" x1="17.77841381587" x2="17.77841381587" xlink:href="#h" y1="-11.16014529717" y2="6.12212223742"/><linearGradient id="j" gradientUnits="userSpaceOnUse" x1="11.82471037088" x2="11.82471037088" xlink:href="#h" y1="5.74313825209" y2="15.29386493331"/><path d="m5.230469 19.273438h11.371093v.910156h-11.371093zm0 0" fill="url(#a)"/><path d="m16.601562 19.273438h1.816407v-.910157h-1.816407zm0 0" fill="url(#c)"/><path d="m5.230469 19.273438h-1.820313v.910156h1.820313zm0 0" fill="url(#d)"/><path d="m5.230469 19.273438h-1.820313v-.910157h1.820313zm0 0" fill="url(#e)"/><path d="m16.601562 19.273438h1.816407v.910156h-1.816407zm0 0" fill="url(#f)"/><path d="m13.683594 1.992188h-9.136719c-.503906 0-.910156.40625-.910156.910156v15.460937c0 .503907.40625.910157.910156.910157h12.734375c.503906 0 .910156-.40625.910156-.910157v-12.242187zm0 0" fill="url(#g)"/><path d="m13.683594 1.992188 4.507812 4.128906v-3.21875c0-.503906-.40625-.910156-.910156-.910156zm0 0" fill="url(#i)"/><path d="m3.636719 18.136719v.226562c0 .503907.40625.910157.910156.910157h12.734375c.503906 0 .910156-.40625.910156-.910157v-.226562c0 .503906-.40625.910156-.910156.910156h-12.734375c-.503906 0-.910156-.40625-.910156-.910156zm0 0" fill-opacity=".235294"/><path d="m4.546875 1.992188c-.503906 0-.910156.40625-.910156.910156v.453125c0-.503907.40625-.910157.910156-.910157h9.136719l4.507812 4.132813v-.457031l-4.507812-4.128906zm0 0" fill="#fff"/><path d="m13.683594 1.992188.496094.453124h3.101562c.503906 0 .910156.40625.910156.910157v-.453125c0-.503906-.40625-.910156-.910156-.910156zm0 0" fill="#fff" fill-opacity=".392157"/><path d="m13.683594 1.992188 4.507812 4.128906v-.378906l-4.09375-3.75zm0 0" fill-opacity=".235294"/><path d="m1203.492866 175.215918h-803.5883c-44.31932 0-80.049625 35.730305-80.049625 80.049626v1359.81295c0 44.31932 35.730305 80.049625 80.049625 80.049625h1120.007635c44.319321 0 80.049626-35.730305 80.049626-80.049625v-1076.718996zm0 0" fill="none" stroke="#212121" stroke-linecap="round" stroke-linejoin="round" stroke-width="11.338583" transform="scale(.0113699)"/><path d="m318.424137-168.640791 104.899074 96.081734v-74.901938c0-11.726153-9.453643-21.179796-21.179796-21.179796zm0 0" fill="none" stroke="#212121" stroke-linecap="round" stroke-linejoin="round" stroke-width="3" transform="matrix(.0429729 0 0 .0429729 0 9.239163)"/><path d="m7.050781 7.789062 1.136719 6.824219h.910156l1.363282-6.140625 1.363281 6.140625h.910156c1.589844-2.730469 2.046875-5.6875 2.046875-7.960937l-1.363281.226562c0 2.046875-.03125 4.546875-.910157 6.597656l-1.367187-6.367187-.90625.226563-1.367187 6.140624-1.136719-5.460937.683593-.90625zm0 0" fill="url(#j)"/><path d="m14.78125 6.710938-1.363281.226562c0 2.046875-.03125 4.542969-.910157 6.59375l-1.367187-6.367188-.90625.226563-1.367187 6.140625-1.097657-5.28125-.039062.050781 1.136719 5.457031 1.367187-6.136718.90625-.230469 1.367187 6.367187c.878907-2.050781.910157-4.546874.910157-6.59375l1.363281-.226562c0-.078125 0-.152344 0-.226562zm-6.367188.453124-1.363281.683594.035157.207032 1.054687-.527344zm0 0" fill="#fff" fill-opacity=".470588"/><path d="m14.78125 7.109375h-.007812c-.058594 2.203125-.550782 4.953125-2.039063 7.503906h-.910156l-1.363281-6.140625-1.363282 6.140625h-.910156l-1.066406-6.402343-.070313.035156 1.136719 6.820312h.910156l1.363282-6.140625 1.363281 6.140625h.910156c1.589844-2.730468 2.046875-5.683594 2.046875-7.957031zm-6.367188.453125-.546874.273438-.136719.179687.074219.355469zm0 0" fill-opacity=".235294"/><path d="m164.075241-33.744582 26.452019 158.803017h21.179796l31.724243-142.895445 31.724243 142.895445h21.179796c36.996467-63.539387 47.631815-132.350997 47.631815-185.255036l-31.724243 5.272224c0 47.631815-.727204 105.808077-21.179796 153.530793l-31.815144-148.167669-21.088895 5.272224-31.815143 142.895445-26.45202-127.078774 15.907572-21.088895zm0 0" fill="none" stroke="#212121" stroke-linecap="round" stroke-linejoin="round" stroke-width="3" transform="matrix(.0429729 0 0 .0429729 0 9.239163)"/></svg>

<?xml version="1.0" encoding="UTF-8"?>
<svg xmlns="http://www.w3.org/2000/svg" xmlns:xlink="http://www.w3.org/1999/xlink" width="22px" height="22px" viewBox="0 0 22 22" version="1.1">
<defs>
<linearGradient id="linear0" gradientUnits="userSpaceOnUse" x1="254" y1="233.5" x2="254" y2="254.666672" gradientTransform="matrix(0.0511582,0,0,0.0429729,-1.808356,9.239165)">
<stop offset="0" style="stop-color:rgb(0%,0%,0%);stop-opacity:0.27451;"/>
<stop offset="1" style="stop-color:rgb(0%,0%,0%);stop-opacity:0;"/>
</linearGradient>
<radialGradient id="radial0" gradientUnits="userSpaceOnUse" cx="450.908936" cy="189.579361" fx="450.908936" fy="189.579361" r="21.166656" gradientTransform="matrix(0.000000119742,-0.0537161,-0.0966889,-0.0000000698078,34.702833,43.721791)">
<stop offset="0" style="stop-color:rgb(0%,0%,0%);stop-opacity:0.313726;"/>
<stop offset="0.222222" style="stop-color:rgb(0%,0%,0%);stop-opacity:0.27451;"/>
<stop offset="1" style="stop-color:rgb(0%,0%,0%);stop-opacity:0;"/>
</radialGradient>
<radialGradient id="radial1" gradientUnits="userSpaceOnUse" cx="450.908936" cy="189.579361" fx="450.908936" fy="189.579361" r="21.166656" gradientTransform="matrix(-0.000000119742,0.0537161,0.0966889,0.0000000698078,-12.872623,-5.175142)">
<stop offset="0" style="stop-color:rgb(0%,0%,0%);stop-opacity:0.313726;"/>
<stop offset="0.222222" style="stop-color:rgb(0%,0%,0%);stop-opacity:0.27451;"/>
<stop offset="1" style="stop-color:rgb(0%,0%,0%);stop-opacity:0;"/>
</radialGradient>
<radialGradient id="radial2" gradientUnits="userSpaceOnUse" cx="450.908936" cy="189.579361" fx="450.908936" fy="189.579361" r="21.166656" gradientTransform="matrix(-0.000000119742,-0.0537161,0.0966889,-0.0000000698078,-12.872623,43.721791)">
<stop offset="0" style="stop-color:rgb(0%,0%,0%);stop-opacity:0.313726;"/>
<stop offset="0.222222" style="stop-color:rgb(0%,0%,0%);stop-opacity:0.27451;"/>
<stop offset="1" style="stop-color:rgb(0%,0%,0%);stop-opacity:0;"/>
</radialGradient>
<radialGradient id="radial3" gradientUnits="userSpaceOnUse" cx="450.908936" cy="189.579361" fx="450.908936" fy="189.579361" r="21.166656" gradientTransform="matrix(0.000000119742,0.0537161,-0.0966889,0.0000000698078,34.702832,-5.175142)">
<stop offset="0" style="stop-color:rgb(0%,0%,0%);stop-opacity:0.313726;"/>
<stop offset="0.222222" style="stop-color:rgb(0%,0%,0%);stop-opacity:0.27451;"/>
<stop offset="1" style="stop-color:rgb(0%,0%,0%);stop-opacity:0;"/>
</radialGradient>
<linearGradient id="linear1" gradientUnits="userSpaceOnUse" x1="254" y1="233.5" x2="254" y2="-168.666672" gradientTransform="matrix(0.0429729,0,0,0.0429729,0,9.239163)">
<stop offset="0" style="stop-color:rgb(87.843138%,87.843138%,87.843138%);stop-opacity:1;"/>
<stop offset="1" style="stop-color:rgb(93.333334%,93.333334%,93.333334%);stop-opacity:1;"/>
</linearGradient>
<linearGradient id="linear2" gradientUnits="userSpaceOnUse" x1="413.712219" y1="-474.701691" x2="413.712219" y2="-72.535034" gradientTransform="matrix(0.0429729,0,0,0.0429729,0,9.239163)">
<stop offset="0" style="stop-color:rgb(50.588238%,78.039217%,51.764709%);stop-opacity:1;"/>
<stop offset="1" style="stop-color:rgb(40.000001%,73.333335%,41.568628%);stop-opacity:1;"/>
</linearGradient>
<linearGradient id="linear3" gradientUnits="userSpaceOnUse" x1="280.458344" y1="-89.291664" x2="280.458344" y2="132.958328" gradientTransform="matrix(0.0429729,0,0,0.0429729,-0.227398,9.58026)">
<stop offset="0" style="stop-color:rgb(50.588238%,78.039217%,51.764709%);stop-opacity:1;"/>
<stop offset="1" style="stop-color:rgb(40.000001%,73.333335%,41.568628%);stop-opacity:1;"/>
</linearGradient>
</defs>
<g id="surface1">
<path style=" stroke:none;fill-rule:nonzero;fill:url(#linear0);" d="M 5.230469 19.273438 L 16.601562 19.273438 L 16.601562 20.183594 L 5.230469 20.183594 Z M 5.230469 19.273438 "/>
<path style=" stroke:none;fill-rule:nonzero;fill:url(#radial0);" d="M 16.601562 19.273438 L 18.417969 19.273438 L 18.417969 18.363281 L 16.601562 18.363281 Z M 16.601562 19.273438 "/>
<path style=" stroke:none;fill-rule:nonzero;fill:url(#radial1);" d="M 5.230469 19.273438 L 3.410156 19.273438 L 3.410156 20.183594 L 5.230469 20.183594 Z M 5.230469 19.273438 "/>
<path style=" stroke:none;fill-rule:nonzero;fill:url(#radial2);" d="M 5.230469 19.273438 L 3.410156 19.273438 L 3.410156 18.363281 L 5.230469 18.363281 Z M 5.230469 19.273438 "/>
<path style=" stroke:none;fill-rule:nonzero;fill:url(#radial3);" d="M 16.601562 19.273438 L 18.417969 19.273438 L 18.417969 20.183594 L 16.601562 20.183594 Z M 16.601562 19.273438 "/>
<path style=" stroke:none;fill-rule:nonzero;fill:url(#linear1);" d="M 13.683594 1.992188 L 4.546875 1.992188 C 4.042969 1.992188 3.636719 2.398438 3.636719 2.902344 L 3.636719 18.363281 C 3.636719 18.867188 4.042969 19.273438 4.546875 19.273438 L 17.28125 19.273438 C 17.785156 19.273438 18.191406 18.867188 18.191406 18.363281 L 18.191406 6.121094 Z M 13.683594 1.992188 "/>
<path style=" stroke:none;fill-rule:nonzero;fill:url(#linear2);" d="M 13.683594 1.992188 L 18.191406 6.121094 L 18.191406 2.902344 C 18.191406 2.398438 17.785156 1.992188 17.28125 1.992188 Z M 13.683594 1.992188 "/>
<path style=" stroke:none;fill-rule:nonzero;fill:rgb(0%,0%,0%);fill-opacity:0.235294;" d="M 3.636719 18.136719 L 3.636719 18.363281 C 3.636719 18.867188 4.042969 19.273438 4.546875 19.273438 L 17.28125 19.273438 C 17.785156 19.273438 18.191406 18.867188 18.191406 18.363281 L 18.191406 18.136719 C 18.191406 18.640625 17.785156 19.046875 17.28125 19.046875 L 4.546875 19.046875 C 4.042969 19.046875 3.636719 18.640625 3.636719 18.136719 Z M 3.636719 18.136719 "/>
<path style=" stroke:none;fill-rule:nonzero;fill:rgb(100%,100%,100%);fill-opacity:1;" d="M 4.546875 1.992188 C 4.042969 1.992188 3.636719 2.398438 3.636719 2.902344 L 3.636719 3.355469 C 3.636719 2.851562 4.042969 2.445312 4.546875 2.445312 L 13.683594 2.445312 L 18.191406 6.578125 L 18.191406 6.121094 L 13.683594 1.992188 Z M 4.546875 1.992188 "/>
<path style=" stroke:none;fill-rule:nonzero;fill:rgb(100%,100%,100%);fill-opacity:0.392157;" d="M 13.683594 1.992188 L 14.179688 2.445312 L 17.28125 2.445312 C 17.785156 2.445312 18.191406 2.851562 18.191406 3.355469 L 18.191406 2.902344 C 18.191406 2.398438 17.785156 1.992188 17.28125 1.992188 Z M 13.683594 1.992188 "/>
<path style=" stroke:none;fill-rule:nonzero;fill:rgb(0%,0%,0%);fill-opacity:0.235294;" d="M 13.683594 1.992188 L 18.191406 6.121094 L 18.191406 5.742188 L 14.097656 1.992188 Z M 13.683594 1.992188 "/>
<path style="fill:none;stroke-width:11.338583;stroke-linecap:round;stroke-linejoin:round;stroke:rgb(12.941177%,12.941177%,12.941177%);stroke-opacity:1;stroke-miterlimit:4;" d="M 1203.492866 175.215918 L 399.904566 175.215918 C 355.585246 175.215918 319.854941 210.946223 319.854941 255.265544 L 319.854941 1615.078494 C 319.854941 1659.397814 355.585246 1695.128119 399.904566 1695.128119 L 1519.912201 1695.128119 C 1564.231522 1695.128119 1599.961827 1659.397814 1599.961827 1615.078494 L 1599.961827 538.359498 Z M 1203.492866 175.215918 " transform="matrix(0.0113699,0,0,0.0113699,0,0)"/>
<path style="fill:none;stroke-width:3;stroke-linecap:round;stroke-linejoin:round;stroke:rgb(12.941177%,12.941177%,12.941177%);stroke-opacity:1;stroke-miterlimit:4;" d="M 318.424137 -168.640791 L 423.323211 -72.559057 L 423.323211 -147.460995 C 423.323211 -159.187148 413.869568 -168.640791 402.143415 -168.640791 Z M 318.424137 -168.640791 " transform="matrix(0.0429729,0,0,0.0429729,0,9.239163)"/>
<path style=" stroke:none;fill-rule:nonzero;fill:url(#linear3);" d="M 7.050781 7.789062 L 8.1875 14.613281 L 9.097656 14.613281 L 10.460938 8.472656 L 11.824219 14.613281 L 12.734375 14.613281 C 14.324219 11.882812 14.78125 8.925781 14.78125 6.652344 L 13.417969 6.878906 C 13.417969 8.925781 13.386719 11.425781 12.507812 13.476562 L 11.140625 7.109375 L 10.234375 7.335938 L 8.867188 13.476562 L 7.730469 8.015625 L 8.414062 7.109375 Z M 7.050781 7.789062 "/>
<path style=" stroke:none;fill-rule:nonzero;fill:rgb(100%,100%,100%);fill-opacity:0.470588;" d="M 14.78125 6.710938 L 13.417969 6.9375 C 13.417969 8.984375 13.386719 11.480469 12.507812 13.53125 L 11.140625 7.164062 L 10.234375 7.390625 L 8.867188 13.53125 L 7.769531 8.25 L 7.730469 8.300781 L 8.867188 13.757812 L 10.234375 7.621094 L 11.140625 7.390625 L 12.507812 13.757812 C 13.386719 11.707031 13.417969 9.210938 13.417969 7.164062 L 14.78125 6.9375 C 14.78125 6.859375 14.78125 6.785156 14.78125 6.710938 Z M 8.414062 7.164062 L 7.050781 7.847656 L 7.085938 8.054688 L 8.140625 7.527344 Z M 8.414062 7.164062 "/>
<path style=" stroke:none;fill-rule:nonzero;fill:rgb(0%,0%,0%);fill-opacity:0.235294;" d="M 14.78125 7.109375 L 14.773438 7.109375 C 14.714844 9.3125 14.222656 12.0625 12.734375 14.613281 L 11.824219 14.613281 L 10.460938 8.472656 L 9.097656 14.613281 L 8.1875 14.613281 L 7.121094 8.210938 L 7.050781 8.246094 L 8.1875 15.066406 L 9.097656 15.066406 L 10.460938 8.925781 L 11.824219 15.066406 L 12.734375 15.066406 C 14.324219 12.335938 14.78125 9.382812 14.78125 7.109375 Z M 8.414062 7.5625 L 7.867188 7.835938 L 7.730469 8.015625 L 7.804688 8.371094 Z M 8.414062 7.5625 "/>
<path style="fill:none;stroke-width:3;stroke-linecap:round;stroke-linejoin:round;stroke:rgb(12.941177%,12.941177%,12.941177%);stroke-opacity:1;stroke-miterlimit:4;" d="M 164.075241 -33.744582 L 190.52726 125.058435 L 211.707056 125.058435 L 243.431299 -17.83701 L 275.155542 125.058435 L 296.335338 125.058435 C 333.331805 61.519048 343.967153 -7.292562 343.967153 -60.196601 L 312.24291 -54.924377 C 312.24291 -7.292562 311.515706 50.8837 291.063114 98.606416 L 259.24797 -49.561253 L 238.159075 -44.289029 L 206.343932 98.606416 L 179.891912 -28.472358 L 195.799484 -49.561253 Z M 164.075241 -33.744582 " transform="matrix(0.0429729,0,0,0.0429729,0,9.239163)"/>
</g>
</svg>
